X: 21634
Q: "Andante."
M: C
L: 1/8
K: D
~d3e f2d2 | g2e2 c2A2 | ~d3e (gf)(ed) | (e3c) A2A2 |\
d3e f2d2 | g2e2 {d}Hc2 (e/d/c/B/) | A3F (B>c)(d>B) | (A3F) D2 |]


